X:1
T:[ID 1-52]
T:[ID 1-52]
T:Bezeichnung standardisiert: Menuett Menuet 9.
T:Urheber unbekannt Erstbeleg: vor 1767 (Datum in der schriftlichen Quelle) Datum in der hier transkribierten schriftlichen Quelle: 1775
C:Urheber unbekannt
C:Erstbeleg: vor 1767 (Datum in der schriftlichen Quelle)
C:Datum in der hier transkribierten schriftlichen Quelle: 1775
L:1/8
M:3/4
K:A
V:1 treble 
V:1
 fe | f2 c2 cd | c4 B2 | AB c2 E2 | C4 f2 | efgefd | efgefd | ec B2 A2 | G4 :: GF | G2 G2 GA | %11
 G4 B2 | ABcFGE | C4 G2 | ABcABG | ABcABG | AG F2 E2 | C4 :| %18

